!!!Rep U0741
!!!Isim(Name): Yaseminim Suya Düştü
!!!Yore(Region): Erzincan - Kemaliye
!!!Makam: Hüseyni
!!!Donanim(Key Signature): b-2
!!!Usul: 10/8, Serbest
**kern	**Dcent
*staff1	*.
=1-	=1-
*clefG2	*.
*k[b-]	*.
*M10/8	*.
aq	0
4ee	0
4ee	0
8ee	0
8cc	0
8dd	0
8ee	0
8ee	0
8dd	0
=2	=2
4dd	0
4ee	0
8cc	0
4dd	0
8cc	0
4ee	0
=3	=3
4dd	0
4ee	0
8cc	0
8dd	0
8dd	0
8cc	0
4ee	0
=4	=4
!!linebreak:default
4dd	0
4ee	0
8cc	0
4r	.
8b-	50
8cc	0
8dd	0
=5	=5
8b-	50
8dd	0
4cc	0
8dd	0
8b-	50
8g	0
8b-	50
8cc	0
8dd	0
=6	=6
8b-	50
8dd	0
4cc	0
8dd	0
4b-	50
8a	0
8a	0
8a	0
=7	=7
!!linebreak:default
8dd	0
8dd	0
4a	0
8r	.
8f#	50
8g	0
8a	0
8a	0
8a	0
=8	=8
8a	0
8g	0
8cc	0
8b-	50
8cc	0
4a	0
8dd	0
8b-	50
8cc	0
=9	=9
4a	0
4a	0
8r	.
8b-	50
8dd	0
4cc	0
8dd	0
=10	=10
!!linebreak:default
8b-	50
8dd	0
4cc	0
8dd	0
8b-	50
8cc	0
8dd	0
8dd	0
8b-	50
=11	=11
8cc	0
8dd	0
4cc	0
8dd	0
4b-	50
4a	0
4a	0
4a	0
=12	=12
4a	0
8dd	0
4.a;	0
8dd	0
8dd	0
4.a;	0
!!linebreak:default
=13	=13
*MXX	*.
16eeQ	0
16eeQ	0
16eeQ	0
16eeQ	0
16eeQ	0
16eeQ	0
16eeQ	0
16eeQ	0
16eeQ	0
16eeQ	0
16eeQ	0
32eeQ	0
32ff#Q	50
32eeQ	0
32ff#Q	50
32eeQ	0
32ff#Q	50
32eeQ	0
32ff#Q	50
8eeQ	0
4rQ	.
4ddQ	0
!!linebreak:default
16eeQ	0
8eeQ	0
32eeQ	0
32ff#Q	50
32eeQ	0
32ff#Q	50
32eeQ	0
32ff#Q	50
16ddQ	0
8ddQ	0
16eeQ	0
8eeQ	0
16ddQ	0
16eeQ	0
32ddQ	0
32eeQ	0
32ddQ	0
32eeQ	0
32ddQ	0
32eeQ	0
32ddQ	0
32eeQ	0
8.ddQ	0
16ccQ	0
!!linebreak:default
8ddQ	0
8ccQ	0
8.eeQ	0
16ddQ	0
32eeQ	0
32ff#Q	50
32eeQ	0
32ff#Q	50
32eeQ	0
32ff#Q	50
4eeQ;	0
4rQ	.
=14	=14
*M10/8	*.
aaq	0
4ee	0
4ee	0
8ee	0
8cc	0
8dd	0
4ee	0
8dd	0
=15	=15
!!pagebreak:default
8gg	0
8ff#	50
4ee	0
8dd	0
8gg	0
8ff#	50
8gg	0
8gg	0
8ff#	50
=16	=16
8gg	0
8ff#	50
4ee	0
8dd	0
4r	.
8ff#	50
8gg	0
8aa	0
=17	=17
8ff#	50
8gg	0
8ee	0
8ee	0
8dd	0
4dd	0
8cc	0
4ee	0
=18	=18
!!linebreak:default
4dd	0
4ee	0
8cc	0
8dd	0
8dd	0
8cc	0
4ee	0
=19	=19
4dd	0
4ee	0
2g	0
4r	.
8b-	50
8cc	0
8dd	0
=20	=20
8b-	50
8dd	0
4cc	0
8dd	0
4b-	50
8a	0
8a	0
8a	0
=21	=21
!!linebreak:default
8a	0
8dd	0
4a	0
8r	.
8f#	50
8g	0
8a	0
8a	0
8a	0
=22	=22
8a	0
8g	0
4a	0
8r	.
8cc	0
8b-	50
8cc	0
4a	0
=23	=23
8cc	0
8b-	50
8cc	0
4a	0
8dd	0
8dd	0
4.a	0
=24	=24
!!linebreak:default
*MXX	*.
16eeQ	0
16eeQ	0
16eeQ	0
16eeQ	0
16eeQ	0
16eeQ	0
16eeQ	0
16eeQ	0
16eeQ	0
16eeQ	0
16eeQ	0
16ddQ	0
16eeQ	0
16eeQ	0
32ddQ	0
32eeQ	0
32ddQ	0
32eeQ	0
32ddQ	0
32eeQ	0
32ddQ	0
16eeQ	0
8ddQ	0
16ccQ	0
16ddQ	0
8eeQ	0
!!linebreak:default
8.ddQ	0
16eeQ	0
8.ccQ	0
16eeQ	0
8.ddQ	0
16ccQ	0
8.ddQ	0
16eeQ	0
4ddQ	0
16eeQ	0
8.eeQ	0
8ddQ	0
8ddQ	0
8.eeQ	0
16ccQ	0
16.eeQ	0
16ddQ	0
8ddQ	0
16.ddQ	0
32eeQ	0
16.ccQ	0
32eeQ	0
16ddQ	0
*-	*-
!! Uzun Hava Humdrum Bilgi Bankasi (Uzun Hava Humdrum Database)
!! 
!! Sertan Senturk, Parag Chordia & Erdal Tugcular
!! Georgia Tech Center for Music Technology, 2011